docs/_assets/img/logo-nav.svg

<?xml version="1.0" encoding="UTF-8"?>
<svg width="416px" height="388px" viewBox="0 0 416 388" version="1.1" xmlns="http://www.w3.org/2000/svg" xmlns:xlink="http://www.w3.org/1999/xlink">
    <!-- Generator: Sketch 49.3 (51167) - http://www.bohemiancoding.com/sketch -->
    <title>bootswatch</title>
    <desc>Created with Sketch.</desc>
    <defs></defs>
    <g id="Page-1" stroke="none" stroke-width="1" fill="none" fill-rule="evenodd">
        <g id="bootswatch" transform="translate(-2.000000, 0.000000)">
            <rect id="Path-2" fill="#E74C3C" transform="translate(146.593847, 320.783896) rotate(-80.000000) translate(-146.593847, -320.783896) " x="103.516923" y="191.553127" width="86.1538462" height="258.461538" rx="8"></rect>
            <rect id="Path-15" fill="#F39C12" transform="translate(133.455591, 268.451625) rotate(-60.000000) translate(-133.455591, -268.451625) " x="90.3786676" y="139.220856" width="86.1538462" height="258.461538" rx="8"></rect>
            <rect id="Path-3" fill="#18BC9C" transform="translate(139.759082, 214.880369) rotate(-40.000000) translate(-139.759082, -214.880369) " x="96.6821594" y="85.6495993" width="86.1538462" height="258.461538" rx="8"></rect>
            <rect id="Path-3" fill="#2C3E50" transform="translate(163.293978, 166.103077) rotate(-20.000000) translate(-163.293978, -166.103077) " x="120.217054" y="36.872308" width="86.1538462" height="258.461538" rx="8"></rect>
            <path d="M159.541173,252.121146 C159.43848,251.609288 159.384615,251.079767 159.384615,250.537653 L159.384615,8.07773184 C159.384615,3.65672746 162.970137,0.0769230769 167.393101,0.0769230769 L237.529976,0.0769230769 C241.959831,0.0769230769 245.538462,3.65900717 245.538462,8.07773184 L245.538462,136.661164 C259.012015,131.898951 273.511089,129.307692 288.615385,129.307692 C359.987568,129.307692 417.846154,187.166278 417.846154,258.538462 C417.846154,329.910645 359.987568,387.769231 288.615385,387.769231 C217.243202,387.769231 159.384615,329.910645 159.384615,258.538462 C159.384615,256.386668 159.437206,254.247158 159.541173,252.121146 Z M288.615385,301.615385 C312.406112,301.615385 331.692308,282.329189 331.692308,258.538462 C331.692308,234.747734 312.406112,215.461538 288.615385,215.461538 C264.824657,215.461538 245.538462,234.747734 245.538462,258.538462 C245.538462,282.329189 264.824657,301.615385 288.615385,301.615385 Z" id="Path-3" fill="#FFFFFF"></path>
        </g>
    </g>
</svg>

<svg xmlns="http://www.w3.org/2000/svg" width="416" height="388" viewBox="0 0 416 388">
  <g fill="none" fill-rule="evenodd" transform="translate(-2)">
    <rect width="86.154" height="258.462" x="103.517" y="191.553" fill="#e74c3c" rx="8" transform="rotate(-80 146.594 320.784)"/>
    <rect width="86.154" height="258.462" x="90.379" y="139.221" fill="#f39c12" rx="8" transform="rotate(-60 133.456 268.452)"/>
    <rect width="86.154" height="258.462" x="96.682" y="85.65" fill="#18bc9c" rx="8" transform="rotate(-40 139.76 214.88)"/>
    <rect width="86.154" height="258.462" x="120.217" y="36.872" fill="#2c3e50" rx="8" transform="rotate(-20 163.294 166.103)"/>
    <path fill="#fff" d="M159.541 252.121a8.044 8.044 0 01-.156-1.583V8.078c0-4.421 3.585-8.001 8.008-8.001h70.137a8 8 0 018.008 8v128.584c13.474-4.762 27.973-7.353 43.077-7.353 71.373 0 129.231 57.858 129.231 129.23 0 71.373-57.858 129.231-129.23 129.231-71.373 0-129.231-57.858-129.231-129.23 0-2.152.052-4.292.156-6.418zm129.074 49.494c23.791 0 43.077-19.286 43.077-43.077 0-23.79-19.286-43.076-43.077-43.076-23.79 0-43.077 19.286-43.077 43.076 0 23.791 19.287 43.077 43.077 43.077z"/>
  </g>
</svg>
